packages/cfpb-design-system/src/components/cfpb-icons/icons/x.svg

<svg viewBox="0 0 15 19" xmlns="http://www.w3.org/2000/svg"><path d="m8.3 8.8 3.3-3.8h-.8l-2.8 3.3-2.3-3.3h-2.6l3.4 5-3.4 4h.8l3-3.5 2.4 3.5h2.6zm-1 1.2-.3-.5-2.8-4h1.2l2.2 3.2.3.5 2.9 4.2h-1.2l-2.4-3.4z"/></svg>

<svg xmlns="http://www.w3.org/2000/svg" aria-hidden="true" class="cf-icon-svg cf-icon-svg--x" viewBox="0 0 15 19"><path d="M8.3 8.8 11.6 5h-.8L8 8.3 5.7 5H3.1l3.4 5-3.4 4h.8l3-3.5L9.3 14h2.6zm-1 1.2L7 9.5l-2.8-4h1.2l2.2 3.2.3.5 2.9 4.2H9.6L7.2 10z"/></svg>
